icons/circle/48/buzztrax.svg

<svg xmlns="http://www.w3.org/2000/svg" viewBox="0 0 48 48">
 <defs>
  <linearGradient id="linearGradient3764" x1="1" x2="47" gradientUnits="userSpaceOnUse" gradientTransform="matrix(0,-1,1,0,-1.5e-6,47.999998)">
   <stop style="stop-color:#3d3d3d;stop-opacity:1"/>
   <stop offset="1" style="stop-color:#474747;stop-opacity:1"/>
  </linearGradient>
 </defs>
 <g>
  <path d="m 36.31 5 c 5.859 4.062 9.688 10.831 9.688 18.5 c 0 12.426 -10.07 22.5 -22.5 22.5 c -7.669 0 -14.438 -3.828 -18.5 -9.688 c 1.037 1.822 2.306 3.499 3.781 4.969 c 4.085 3.712 9.514 5.969 15.469 5.969 c 12.703 0 23 -10.298 23 -23 c 0 -5.954 -2.256 -11.384 -5.969 -15.469 c -1.469 -1.475 -3.147 -2.744 -4.969 -3.781 z m 4.969 3.781 c 3.854 4.113 6.219 9.637 6.219 15.719 c 0 12.703 -10.297 23 -23 23 c -6.081 0 -11.606 -2.364 -15.719 -6.219 c 4.16 4.144 9.883 6.719 16.219 6.719 c 12.703 0 23 -10.298 23 -23 c 0 -6.335 -2.575 -12.06 -6.719 -16.219 z" style="opacity:0.05"/>
  <path d="m 41.28 8.781 c 3.712 4.085 5.969 9.514 5.969 15.469 c 0 12.703 -10.297 23 -23 23 c -5.954 0 -11.384 -2.256 -15.469 -5.969 c 4.113 3.854 9.637 6.219 15.719 6.219 c 12.703 0 23 -10.298 23 -23 c 0 -6.081 -2.364 -11.606 -6.219 -15.719 z" style="opacity:0.1"/>
  <path d="m 31.25 2.375 c 8.615 3.154 14.75 11.417 14.75 21.13 c 0 12.426 -10.07 22.5 -22.5 22.5 c -9.708 0 -17.971 -6.135 -21.12 -14.75 a 23 23 0 0 0 44.875 -7 a 23 23 0 0 0 -16 -21.875 z" style="opacity:0.2"/>
 </g>
 <g>
  <path d="m 24 1 c 12.703 0 23 10.297 23 23 c 0 12.703 -10.297 23 -23 23 -12.703 0 -23 -10.297 -23 -23 0 -12.703 10.297 -23 23 -23 z" style="fill:url(#linearGradient3764);fill-opacity:1"/>
 </g>
 <g>
  <path d="m 40.03 7.531 c 3.712 4.084 5.969 9.514 5.969 15.469 0 12.703 -10.297 23 -23 23 c -5.954 0 -11.384 -2.256 -15.469 -5.969 4.178 4.291 10.01 6.969 16.469 6.969 c 12.703 0 23 -10.298 23 -23 0 -6.462 -2.677 -12.291 -6.969 -16.469 z" style="opacity:0.1"/>
 </g>
 <g>
  <path d="m 13.801 15 c -0.443 0 -0.801 0.358 -0.801 0.801 l 0 5.398 c 0 0.443 0.358 0.801 0.801 0.801 l 2.328 0 4.293 7.107 c -0.248 0.136 -0.422 0.39 -0.422 0.693 l 0 5.398 c 0 0.443 0.358 0.801 0.801 0.801 l 8.398 0 c 0.443 0 0.801 -0.358 0.801 -0.801 l 0 -5.398 c 0 -0.272 -0.145 -0.5 -0.352 -0.645 l 4.322 -7.156 2.229 0 c 0.443 0 0.801 -0.358 0.801 -0.801 l 0 -5.398 c 0 -0.443 -0.358 -0.801 -0.801 -0.801 l -8.398 0 c -0.443 0 -0.801 0.358 -0.801 0.801 l 0 5.398 c 0 0.443 0.358 0.801 0.801 0.801 l 2.314 0 -4.227 7 -1.676 0 -4.229 -7 2.215 0 c 0.443 0 0.801 -0.358 0.801 -0.801 l 0 -5.398 c 0 -0.443 -0.358 -0.801 -0.801 -0.801 l -8.398 0 z" mix-blend-mode="normal" isolation="auto" white-space="normal" solid-opacity="1" solid-color="#000000" style="visibility:visible;shape-rendering:auto;color-interpolation-filters:linearRGB;fill:#000;opacity:1;image-rendering:auto;fill-opacity:0.098;stroke:none;display:inline;color:#000;fill-rule:evenodd;color-rendering:auto;color-interpolation:sRGB"/>
  <path d="m 17 17.721 c -0.942 0.568 -1.884 1.135 -2.826 1.703 l 7.518 12.449 2.826 -1.703 z" mix-blend-mode="normal" isolation="auto" white-space="normal" solid-opacity="1" solid-color="#000000" style="visibility:visible;shape-rendering:auto;color-interpolation-filters:linearRGB;fill:#808080;opacity:1;image-rendering:auto;fill-opacity:1;stroke:none;display:inline;color:#000;fill-rule:evenodd;color-rendering:auto;color-interpolation:sRGB"/>
  <path d="m 31.1 17.721 c 0.942 0.568 1.884 1.135 2.826 1.703 l -7.518 12.449 -2.826 -1.703" mix-blend-mode="normal" isolation="auto" white-space="normal" solid-opacity="1" solid-color="#000000" style="visibility:visible;shape-rendering:auto;color-interpolation-filters:linearRGB;fill:#808080;opacity:1;image-rendering:auto;fill-opacity:1;stroke:none;display:inline;color:#000;fill-rule:evenodd;color-rendering:auto;color-interpolation:sRGB"/>
  <path d="m 16.834 18.406 -1.969 1.188 7 11.594 1.969 -1.188 -7 -11.594 z" mix-blend-mode="normal" isolation="auto" white-space="normal" solid-opacity="1" solid-color="#000000" style="visibility:visible;shape-rendering:auto;color-interpolation-filters:linearRGB;fill:#969696;opacity:1;image-rendering:auto;fill-opacity:1;stroke:none;display:inline;color:#000;fill-rule:evenodd;color-rendering:auto;color-interpolation:sRGB"/>
  <rect rx="0.8" y="14" x="12" height="7" width="10" style="fill:#c37c14;fill-opacity:1;stroke:none;fill-rule:evenodd"/>
  <path d="m 31.27 18.406 1.969 1.188 -7 11.594 l -1.969 -1.188 l 7 -11.594 z" mix-blend-mode="normal" isolation="auto" white-space="normal" solid-opacity="1" solid-color="#000000" style="visibility:visible;shape-rendering:auto;color-interpolation-filters:linearRGB;fill:#969696;opacity:1;image-rendering:auto;fill-opacity:1;stroke:none;display:inline;color:#000;fill-rule:evenodd;color-rendering:auto;color-interpolation:sRGB"/>
  <rect width="10" height="7" x="26" y="14" rx="0.8" style="fill:#5e9d23;fill-opacity:1;stroke:none;fill-rule:evenodd"/>
  <rect width="10" height="7" x="19" y="28" rx="0.8" style="fill:#3465a4;fill-opacity:1;stroke:none;fill-rule:evenodd"/>
  <rect width="8" height="5" x="13" y="15" rx="0.2" style="fill:#f3ad47;fill-opacity:1;stroke:none;fill-rule:evenodd"/>
  <rect rx="0.2" y="15" x="27" height="5" width="8" style="fill:#82d530;fill-opacity:1;stroke:none;fill-rule:evenodd"/>
  <rect width="8" height="5" x="20" y="29" rx="0.2" style="fill:#729fcf;fill-opacity:1;stroke:none;fill-rule:evenodd"/>
 </g>
</svg>

<svg xmlns="http://www.w3.org/2000/svg" viewBox="0 0 48 48">
  <defs>
    <linearGradient id="a" x1="1" x2="47" gradientUnits="userSpaceOnUse" gradientTransform="rotate(-90 24 24)">
      <stop stop-color="#3d3d3d"/>
      <stop offset="1" stop-color="#474747"/>
    </linearGradient>
  </defs>
  <path d="M36.31 5c5.859 4.062 9.688 10.831 9.688 18.5 0 12.426-10.07 22.5-22.5 22.5-7.669 0-14.438-3.828-18.5-9.688a23.24 23.24 0 0 0 3.781 4.969 22.923 22.923 0 0 0 15.469 5.969c12.703 0 23-10.298 23-23a22.92 22.92 0 0 0-5.969-15.469A23.216 23.216 0 0 0 36.31 5zm4.969 3.781A22.911 22.911 0 0 1 47.498 24.5c0 12.703-10.297 23-23 23a22.909 22.909 0 0 1-15.719-6.219C12.939 45.425 18.662 48 24.998 48c12.703 0 23-10.298 23-23 0-6.335-2.575-12.06-6.719-16.219z" opacity=".05"/>
  <path d="M41.28 8.781a22.923 22.923 0 0 1 5.969 15.469c0 12.703-10.297 23-23 23A22.92 22.92 0 0 1 8.78 41.281 22.911 22.911 0 0 0 24.499 47.5c12.703 0 23-10.298 23-23A22.909 22.909 0 0 0 41.28 8.781z" opacity=".1"/>
  <path d="M31.25 2.375C39.865 5.529 46 13.792 46 23.505c0 12.426-10.07 22.5-22.5 22.5-9.708 0-17.971-6.135-21.12-14.75a23 23 0 0 0 44.875-7 23 23 0 0 0-16-21.875z" opacity=".2"/>
  <path d="M24 1c12.703 0 23 10.297 23 23S36.703 47 24 47 1 36.703 1 24 11.297 1 24 1z" fill="url(#a)"/>
  <g>
    <path d="M40.03 7.531A22.922 22.922 0 0 1 45.999 23c0 12.703-10.297 23-23 23A22.92 22.92 0 0 1 7.53 40.031C11.708 44.322 17.54 47 23.999 47c12.703 0 23-10.298 23-23 0-6.462-2.677-12.291-6.969-16.469z" opacity=".1"/>
  </g>
  <g fill-rule="evenodd">
    <path d="M13.801 15a.8.8 0 0 0-.801.801v5.398a.8.8 0 0 0 .801.801h2.328l4.293 7.107A.79.79 0 0 0 20 29.8v5.398a.8.8 0 0 0 .801.801h8.398a.8.8 0 0 0 .801-.801V29.8c0-.272-.145-.5-.352-.645l4.322-7.156h2.229a.8.8 0 0 0 .801-.801V15.8a.8.8 0 0 0-.801-.801h-8.398A.8.8 0 0 0 27 15.8v5.398a.8.8 0 0 0 .801.801h2.314l-4.227 7h-1.676l-4.229-7h2.215a.8.8 0 0 0 .801-.801V15.8a.8.8 0 0 0-.801-.801H13.8z" white-space="normal" solid-color="#000000" fill-opacity=".098" color="#000"/>
    <path d="M17 17.721l-2.826 1.703 7.518 12.449 2.826-1.703z" white-space="normal" solid-color="#000000" fill="gray" color="#000"/>
    <path d="M31.1 17.721l2.826 1.703-7.518 12.449-2.826-1.703" white-space="normal" solid-color="#000000" fill="gray" color="#000"/>
    <path d="M16.834 18.406l-1.969 1.188 7 11.594L23.834 30l-7-11.594z" white-space="normal" solid-color="#000000" fill="#969696" color="#000"/>
    <rect rx=".8" y="14" x="12" height="7" width="10" fill="#c37c14"/>
    <path d="M31.27 18.406l1.969 1.188-7 11.594L24.27 30l7-11.594z" white-space="normal" solid-color="#000000" fill="#969696" color="#000"/>
    <rect width="10" height="7" x="26" y="14" rx=".8" fill="#5e9d23"/>
    <rect width="10" height="7" x="19" y="28" rx=".8" fill="#3465a4"/>
    <rect width="8" height="5" x="13" y="15" rx=".2" fill="#f3ad47"/>
    <rect rx=".2" y="15" x="27" height="5" width="8" fill="#82d530"/>
    <rect width="8" height="5" x="20" y="29" rx=".2" fill="#729fcf"/>
  </g>
</svg>
